X: 15623
T: Gobby O, The
R: jig
M: 6/8
K: Amajor
|:A/B/|c2A ABA|E2A A2A|B2G GBd|dBG GAB|
c2A ABc|d2B Bcd|edc BAB|E2A A2:|
|:B|c2d e2f|g3 e3|a2f g2e|dBG GAB|
c2A ABc|d2B Bcd|edc BAB|E2A A2:|

